X:62
L:1/8
Q:1/4=120
M:2/2
K:G
"^Fast" D2 BD GABc | dBde dBAG | EDCD EGAB | cBcd cBAG | FEFG ABde | fefa fdef | gedc BGAB | 
[M:2/4] G2 G,2- |[M:2/2] G,A,B,D GABc | dBde dBAG | EDCD EGAB | cBcd cBAG | FEFG ABde | fefa fdef | 
 gedc BGAF |[M:2/4] G2 [Bg]2- |:[M:2/2] [Bg]2 [Bg]4 fg | fgag defg | gfga gedB | AcAc Acde | 
 faaf abag | fefa fdef | gedc BGAF |[M:2/4] G2 [Bg-]2 ::[M:2/2]"^Alternate 'B' part" [Bg]bgb gbgb | 
 gbgb gdef | gfga gedc | eceA Bcde | fgaf ac'ba | fefa fdef | gedc BGAB |[M:2/4] G2 [Bg-]2 :|

